X:1
T:Title
%%score { ( 1 3 ) | ( 2 4 ) }
L:1/8
Q:1/4=100
M:6/8
K:F
V:1 treble nm="Grand Piano"
V:3 treble 
V:2 bass 
V:4 bass 
V:1
 A2 A [Ec]<[EB][EG] | z/ F/- F2- F3 | D<DD C2 [A,CF] | G6 | G>^FG [DB]2 A | F2 G A3 | %6
w: E.~O.~Excell * * * *||||||
 G>^FG [DB]2 A | F2 A c3 | D2 D C>CC | [CB]2 [CB] [CA]3 | z3 .[=B,A]3 | c6 | c2 A [Ec]<[EB][EG] | %13
w: |||||||
 z/ F/- F2- F3 | c-[Fc-][Gc-] [DBc-]<[Ac-][Gc-] | [A,Fc]6 |] %16
w: |||
V:2
 [F,CF]2 [F,CF] [C,B,]<[C,G,][C,B,] | [F,A,]<[F,A,][F,B,] [F,A,]3 | %2
 [B,,F,B,]<[B,,F,B,][B,,F,B,] [A,,F,]2 F,, | [C,B,C]6 | [C,B,C]>[C,A,C][C,B,C] [C,C]2 [C,C] | %5
 [F,A,C]2 [F,B,C] [F,C]3 | [C,B,C]>[C,A,C][C,B,C] [C,C]2 [C,C] | [F,A,C]2 [F,CF] [F,A,F]3 | %8
 [F,B,]2 [B,,F,B,] [B,,F,]>[A,,F,][A,,F,] | [G,,E,]2 [G,,E,] [F,,F,]3 | %10
 [G,,F,]3 [G,,F,]G,,[D,F,=B,] | [E,C]F,G, B,3 | [F,A,F]2 [F,CF] [C,B,]<[C,G,][C,B,] | %13
 [F,A,]<[F,A,][F,B,] [F,A,]3 | G,A,B, z/ C3/2B, | F,<C,A,, F,,3 |] %16
V:3
 x6 | .F2 D C3 | x6 | x6 | x6 | x6 | x6 | x6 | x6 | x6 | [=B,A]2 [B,G] z F,G | z DE G3 | x6 | %13
 .F2 D C3 | .E3 z3 | x6 |] %16
V:4
 x6 | x6 | x6 | x6 | x6 | x6 | x6 | x6 | x6 | x6 | x6 | C,6 | x6 | x6 | C,3 C,3 | x6 |] %16

